svgs/light/booth-curtain.svg

<svg xmlns="http://www.w3.org/2000/svg" viewBox="0 0 512 512"><!-- Font Awesome Pro 6.0.0-alpha2 by @fontawesome - https://fontawesome.com License - https://fontawesome.com/license (Commercial License) --><path d="M0 32V496C0 504.8 7.2 512 16 512H16C24.8 512 32 504.8 32 496V32H96L96 381.523C96 416.815 123.491 447.31 158.777 447.988C178.529 448.368 196.002 439.533 208 425.875C219.75 439.25 236.75 448 256 448S292.25 439.25 304 425.875C315.75 439.25 332.75 448 352 448S388.25 439.25 400 425.875C411.75 439.25 428.75 448 448 448C459.75 448 470.5 444.625 480 439.125V496C480 504.8 487.2 512 496 512L496 512C504.8 512 512 504.8 512 496V32C512 14.327 497.673 0 480 0H32C14.327 0 0 14.327 0 32ZM416 32H480V384C480 401.75 465.75 416 448 416C430.25 416 416 401.75 416 384V32ZM320 32H384V384C384 401.75 369.75 416 352 416S320 401.75 320 384V32ZM224 32H288V384C288 401.75 273.75 416 256 416S224 401.75 224 384V32ZM128 32H192V384C192 401.75 177.75 416 160 416S128 401.75 128 384V32Z"/></svg>

<svg xmlns="http://www.w3.org/2000/svg" viewBox="0 0 512 512"><!--! Font Awesome Pro 6.3.0 by @fontawesome - https://fontawesome.com License - https://fontawesome.com/license (Commercial License) Copyright 2023 Fonticons, Inc. --><path d="M0 32v464C0 504.8 7.2 512 15.1 512S32 504.8 32 496V32h64L95.1 381.5c0 35.29 27.49 65.79 62.78 66.47C178.5 448.4 196 439.5 208 425.9C219.8 439.2 236.8 448 256 448s36.25-8.75 48-22.12C315.8 439.2 332.8 448 352 448s36.25-8.75 48-22.12C411.8 439.2 428.8 448 448 448c11.75 0 22.5-3.375 32-8.875v56.88C480 504.8 487.2 512 496 512s16-7.2 16-16V32c0-17.67-14.33-32-32-32H32C14.33 0 0 14.33 0 32zM416 32h64v352c0 17.75-14.25 32-32 32c-17.75 0-32-14.25-32-32V32zM320 32h64v352c0 17.75-14.25 32-32 32s-32-14.25-32-32V32zM224 32h64v352c0 17.75-14.25 32-32 32s-32-14.25-32-32V32zM128 32h64v352c0 17.75-14.25 32-32 32s-32-14.25-32-32V32z"/></svg>
